svgs/sharp-light/otter.svg

<svg xmlns="http://www.w3.org/2000/svg" viewBox="0 0 640 512"><!--! Font Awesome Pro 6.6.0 by @fontawesome - https://fontawesome.com License - https://fontawesome.com/license (Commercial License) Copyright 2024 Fonticons, Inc. --><path d="M167.9 197.9l15.2-7.6 8.8-4.4 0-9.9 0-16 0-16-16 0-32 0-16 0 0 16 0 16 0 9.9 8.8 4.4 15.2 7.6-11.3 8.5L117.3 224 48 224l0-80c0-44.2 35.8-80 80-80l64 0c44.2 0 80 35.8 80 80l0 77 0 3-69.3 0-23.5-17.6-11.3-8.5zM192 256l72.6 0c11.1 19.1 31.7 32 55.4 32l81.4 0-44.7 44.7-4.7 4.7 0 6.6 0 8-80 0 0-48 0-16-16 0-144 0c-20.9 0-38.7-13.4-45.3-32l61.3 0 32-24 32 24zM16 256l16 0 0 .6C32 380 132 480 255.4 480l159.5 0C539.2 480 640 379.2 640 254.9c0-90.7-64-168.8-153-186.6l-19.9-4-8.2 30.9 21.6 7.2c37.9 12.6 63.4 48.1 63.4 88c0 16.4-6 31.4-16 42.9l0-41.3 0-16-16 0-64 0-16 0 0 16 0 64s0 0 0 0l-32 0 0-48 0-16-16 0-32 0-8 0c-14.2 0-27.7 2.8-40 8l0-56c0-5.4-.4-10.8-1.1-16l1.1 0 16 0 0-32-16 0-10.8 0c-18-37.8-56.5-64-101.2-64l-64 0C83.3 32 44.8 58.2 26.8 96L16 96 0 96l0 32 16 0 1.1 0c-.7 5.2-1.1 10.6-1.1 16l0 80 0 32zm288-19.9c11.4-7.7 25.2-12.1 40-12.1l8 0 16 0 0 32-16 0-8 0-.2 0L320 256c-5.8 0-11.3-1.6-16-4.3l0-15.6zM528 368l0-93.5c28.7-17 48-48.3 48-84.1c0-13.3-2.1-26.3-6.1-38.5c23.9 27.9 38.1 64 38.1 103C608 361.5 521.5 448 414.9 448l-159.5 0c-87.6 0-161.4-58.9-184.2-139.2C83.1 315.9 97.1 320 112 320l128 0 0 32-32 0-48 0-16 0 0 32 16 0 48 0 48 0 16 0 96 0 16 0 0-16 0-17.4 75.3-75.3 4.7-4.7 0-6.6 0-8 0-48 32 0 0 151.4-40.9 27.3-13.3 8.9 17.8 26.6 13.3-8.9 48-32 7.1-4.7 0-8.6zM112 144a16 16 0 1 0 -32 0 16 16 0 1 0 32 0zm112 16a16 16 0 1 0 0-32 16 16 0 1 0 0 32z"/></svg>

<svg xmlns="http://www.w3.org/2000/svg" viewBox="0 0 640 512"><!--! Font Awesome Pro 6.4.2 by @fontawesome - https://fontawesome.com License - https://fontawesome.com/license (Commercial License) Copyright 2023 Fonticons, Inc. --><path d="M167.9 197.9l15.2-7.6 8.8-4.4V176 160 144H176 144 128v16 16 9.9l8.8 4.4 15.2 7.6-11.3 8.5L117.3 224H48V144c0-44.2 35.8-80 80-80h64c44.2 0 80 35.8 80 80v77 3H202.7l-23.5-17.6-11.3-8.5zM192 256h72.6c11.1 19.1 31.7 32 55.4 32h81.4l-44.7 44.7-4.7 4.7V344v8H272V304 288H256 112c-20.9 0-38.7-13.4-45.3-32H128l32-24 32 24zM16 256H32v.6C32 380 132 480 255.4 480H414.9C539.2 480 640 379.2 640 254.9c0-90.7-64-168.8-153-186.6l-19.9-4-8.2 30.9 21.6 7.2c37.9 12.6 63.4 48.1 63.4 88c0 16.4-6 31.4-16 42.9V192 176H512 448 432v16 64 0H400V208 192H384 352h-8c-14.2 0-27.7 2.8-40 8V144c0-5.4-.4-10.8-1.1-16H304h16V96H304 293.2c-18-37.8-56.5-64-101.2-64H128C83.3 32 44.8 58.2 26.8 96H16 0v32H16h1.1c-.7 5.2-1.1 10.6-1.1 16v80 32zm288-19.9c11.4-7.7 25.2-12.1 40-12.1h8 16v32H352h-8l-.2 0H320c-5.8 0-11.3-1.6-16-4.3V236.1zM528 368V274.5c28.7-17 48-48.3 48-84.1c0-13.3-2.1-26.3-6.1-38.5c23.9 27.9 38.1 64 38.1 103C608 361.5 521.5 448 414.9 448H255.4c-87.6 0-161.4-58.9-184.2-139.2C83.1 315.9 97.1 320 112 320H240v32H208 160 144v32h16 48 48 16 96 16V368 350.6l75.3-75.3 4.7-4.7V264v-8V208h32V359.4l-40.9 27.3-13.3 8.9 17.8 26.6 13.3-8.9 48-32 7.1-4.7V368zM112 144a16 16 0 1 0 -32 0 16 16 0 1 0 32 0zm112 16a16 16 0 1 0 0-32 16 16 0 1 0 0 32z"/></svg>
